X:1
T:Title
%%score { ( 1 4 ) | ( 2 3 ) }
L:1/8
M:4/4
K:Eb
V:1 treble nm="Grand Piano"
V:4 treble 
V:2 bass 
V:3 bass 
V:1
 z4 z2[Q:1/4=100] [G,B,]2 | [G,CE]2 [B,DF]2 [B,EG]2 [B,E]2 | [CF]2 [=EG]2 [CFA]2 [A,CF]2 | %3
 E2 D2 C2 B,2 | E6 G2 | B2 A2 G2 E2 | [B,EG]2 [A,DF]2 [G,E]2 [G,_DE]2 | %7
 [Cc]2 [C=EB]2 [CF=A]2 [=A,_EF]2 | [B,DB]6 B2 | d2 c2 B2 A2 | [EAc]2 [_G=A]2 [B,=GB]2 B2 | %11
 d2 c2 B2 =A2 | A6 F2 | G2 A2 [GB]2 [F=B]2 |[M:9/8] c2 _d- d [Ec]2- [Ec] [Ee]2 | %15
[M:4/4] [EB]2 [EG]2 [DA]2 D2 |[M:3/4] E6 |] %17
V:2
 z4 z2 E,2 | C,2 B,,2 E,2 G,2 | A,2 G,2 F,2 A,,2 | [B,,G,B,]2 [B,,F,B,]2 [B,,A,B,]2 [D,A,]2 | %4
 [E,G,B,]6 [E,B,E]2 | [E,_DE]2 [E,CE]2 [E,B,E]2 [E,G,]2 | B,,2 =B,,2 C,2 _B,,2 | %7
 [A,,A,]2 G,,2 F,,2 F,2 | B,,6 B,2 | [B,FA]2 [CEA]2 [DF]2[K:bass] [B,D]2 | z2 C2 E,2 B,2 | %11
 [B,FA]2 [CEA]2 [DF]2 [CEF]2 | [B,DF]6[K:bass] [A,B,D]2 | [G,B,E]2 [F,B,F]2 [E,B,]2 [D,G,]2 | %14
[M:9/8] G,2- [B,,G,]- [B,,G,] [A,,A,]2- [A,,A,] [=A,,_G,]2 | %15
[M:4/4] [B,,G,]2 [B,,B,]2 [B,,F,]2 [B,,A,B,]2 |[M:3/4] [E,G,B,]6 |] %17
V:3
 x8 | x8 | x8 | x8 | x8 | x8 | x8 | x8 | x8 | x6[K:bass] x2 | E,4 z4 | x8 | x6[K:bass] x2 | x8 | %14
[M:9/8] .C,3 z3 z3 |[M:4/4] x8 |[M:3/4] x6 |] %17
V:4
 x8 | x8 | x8 | x8 | x8 | x8 | x8 | x8 | x8 | x8 | x8 | x8 | x8 | x8 |[M:9/8] .E6 z3 |[M:4/4] x8 | %16
[M:3/4] x6 |] %17

